build/svg/cmd/sc_symbolshapes.octagon-bevel.svg

<?xml version="1.0" encoding="UTF-8" standalone="no"?>
<svg
   xmlns:dc="http://purl.org/dc/elements/1.1/"
   xmlns:cc="http://creativecommons.org/ns#"
   xmlns:rdf="http://www.w3.org/1999/02/22-rdf-syntax-ns#"
   xmlns:svg="http://www.w3.org/2000/svg"
   xmlns="http://www.w3.org/2000/svg"
   xmlns:sodipodi="http://sodipodi.sourceforge.net/DTD/sodipodi-0.dtd"
   xmlns:inkscape="http://www.inkscape.org/namespaces/inkscape"
   viewBox="0 0 16 16"
   version="1.1"
   id="svg6"
   sodipodi:docname="sc_symbolshapes.octagon-bevel.svg"
   inkscape:version="0.92.4 (5da689c313, 2019-01-14)"
   inkscape:export-filename="/home/jupiter007/Libreoffice yaru theme fullcolor/build/cmd/sc_symbolshapes.octagon-bevel.png"
   inkscape:export-xdpi="96"
   inkscape:export-ydpi="96">
  <metadata
     id="metadata12">
    <rdf:RDF>
      <cc:Work
         rdf:about="">
        <dc:format>image/svg+xml</dc:format>
        <dc:type
           rdf:resource="http://purl.org/dc/dcmitype/StillImage" />
      </cc:Work>
    </rdf:RDF>
  </metadata>
  <defs
     id="defs10" />
  <sodipodi:namedview
     pagecolor="#ffffff"
     bordercolor="#666666"
     borderopacity="1"
     objecttolerance="10"
     gridtolerance="10"
     guidetolerance="10"
     inkscape:pageopacity="0"
     inkscape:pageshadow="2"
     inkscape:window-width="1920"
     inkscape:window-height="1011"
     id="namedview8"
     showgrid="false"
     inkscape:zoom="14.75"
     inkscape:cx="0.44067797"
     inkscape:cy="8"
     inkscape:window-x="0"
     inkscape:window-y="32"
     inkscape:window-maximized="1"
     inkscape:current-layer="svg6" />
  <path
     style="fill:#000000;stroke:#000000;opacity:0.6;stroke-width:2;stroke-miterlimit:4;stroke-dasharray:none;stroke-linejoin:round"
     id="path822"
     fill="#232629"
     d="m6.53125 2 1 3h.9375l1-3zm-.90625.375-3.25 3.25 2.90625.96875 1.3125-1.3125zm4.75 0-.96875 2.90625 1.3125 1.3125 2.90625-.96875zm-8.375 4.15625v2.9375l3-1v-.9375zm12 0-3 1v.9375l3 1zm-8.71875 2.875-2.90625.96875 3.25 3.25.96875-2.90625zm5.4375 0-1.3125 1.3125.96875 2.90625 3.25-3.25zm-3.1875 1.59375-1 3h2.9375l-1-3z" />
  <path
     d="m6 2-4 4v4l4 4h4l4-4v-4l-4-4z"
     fill="#b3b3b3"
     id="path2"
     style="fill:#6d6d6d;fill-opacity:1" />
  <path
     d="m6.53125 2 1 3h.9375l1-3zm-.90625.375-3.25 3.25 2.90625.96875 1.3125-1.3125zm4.75 0-.96875 2.90625 1.3125 1.3125 2.90625-.96875zm-8.375 4.15625v2.9375l3-1v-.9375zm12 0-3 1v.9375l3 1zm-8.71875 2.875-2.90625.96875 3.25 3.25.96875-2.90625zm5.4375 0-1.3125 1.3125.96875 2.90625 3.25-3.25zm-3.1875 1.59375-1 3h2.9375l-1-3z"
     fill="#232629"
     id="path4"
     style="fill:#ffffff;fill-opacity:1" />
</svg>

<svg xmlns="http://www.w3.org/2000/svg" viewBox="0 0 16 16"><path d="M6.531 2l1 3h.938l1-3zm-.906.375l-3.25 3.25 2.906.969L6.594 5.28zm4.75 0l-.969 2.906 1.313 1.313 2.906-.969zM2 6.531V9.47l3-1V7.53zm12 0l-3 1v.938l3 1zM5.281 9.406l-2.906.969 3.25 3.25.969-2.906zm5.438 0L9.406 10.72l.969 2.906 3.25-3.25zM7.53 11l-1 3H9.47l-1-3z" stroke="#000" opacity=".6" stroke-width="2" stroke-linejoin="round"/><path d="M6 2L2 6v4l4 4h4l4-4V6l-4-4z" fill="#6d6d6d"/><path d="M6.531 2l1 3h.938l1-3zm-.906.375l-3.25 3.25 2.906.969L6.594 5.28zm4.75 0l-.969 2.906 1.313 1.313 2.906-.969zM2 6.531V9.47l3-1V7.53zm12 0l-3 1v.938l3 1zM5.281 9.406l-2.906.969 3.25 3.25.969-2.906zm5.438 0L9.406 10.72l.969 2.906 3.25-3.25zM7.53 11l-1 3H9.47l-1-3z" fill="#fff"/></svg>
